svgs/thin/podcast.svg

<svg xmlns="http://www.w3.org/2000/svg" viewBox="0 0 448 512"><!--! Font Awesome Pro 6.3.0 by @fontawesome - https://fontawesome.com License - https://fontawesome.com/license (Commercial License) Copyright 2023 Fonticons, Inc. --><path d="M224 312c-32.88 0-64 8.625-64 43.75c0 33.13 12.88 104.3 20.62 132.8C185.8 507.6 205.1 512 224 512s38.25-4.375 43.38-23.38C275.1 459.9 288 388.8 288 355.8C288 320.6 256.9 312 224 312zM251.9 484.5C251.1 487.6 248.8 496 224 496c-24.81 0-27.07-8.385-27.94-11.57C188.1 455.3 176 386.1 176 355.8C176 347.4 176 328 224 328s48 19.45 48 27.75C272 385.7 259.9 455.1 251.9 484.5zM224 280c30.95 0 56-25.05 56-56S254.1 168 224 168S168 193 168 224S193 280 224 280zM224 184c22.06 0 40 17.94 40 40S246.1 264 224 264C201.9 264 184 246.1 184 224S201.9 184 224 184zM224 0C100.5 0 0 100.5 0 224c0 85.66 47.69 162.6 124.4 200.7c4.031 1.984 8.781 .3594 10.72-3.609c1.969-3.953 .375-8.766-3.594-10.73C60.28 374.1 16 303.5 16 224c0-114.7 93.31-208 208-208s208 93.31 208 208c0 79.55-44.28 150.1-115.6 186.4c-3.969 1.969-5.562 6.781-3.594 10.73C314.2 423.9 317.1 425.5 320 425.5c1.188 0 2.406-.2656 3.562-.8281C400.3 386.6 448 309.7 448 224C448 100.5 347.5 0 224 0zM314.7 325.7C316.3 327.2 318.3 328 320.3 328c2.062 0 4.094-.7813 5.656-2.359C353.1 298.5 368 262.4 368 224c0-79.41-64.59-144-144-144S80 144.6 80 224c0 38.36 14.91 74.47 41.1 101.6c3.094 3.125 8.157 3.156 11.31 .0313c3.125-3.125 3.125-8.188 0-11.31C109.3 290.2 96 258.1 96 224c0-70.58 57.41-128 128-128s128 57.42 128 128c0 34.11-13.25 66.19-37.31 90.36C311.6 317.5 311.6 322.5 314.7 325.7z"/></svg>

<svg xmlns="http://www.w3.org/2000/svg" viewBox="0 0 448 512"><!-- Font Awesome Pro 6.0.0-alpha2 by @fontawesome - https://fontawesome.com License - https://fontawesome.com/license (Commercial License) --><path d="M224 312C191.125 312 160 320.625 160 355.75C160 388.875 172.875 460.125 180.625 488.625C185.75 507.625 205.125 512 224 512S262.25 507.625 267.375 488.625C275.125 459.875 288 388.75 288 355.75C288 320.625 256.875 312 224 312ZM251.928 484.457C251.076 487.615 248.814 496 224 496C199.188 496 196.926 487.615 196.064 484.426C188.143 455.289 176 386.051 176 355.75C176 347.445 176 328 224 328S272 347.445 272 355.75C272 385.693 259.854 455.055 251.928 484.457ZM224 280C254.953 280 280 254.953 280 224S254.953 168 224 168S168 193.047 168 224S193.047 280 224 280ZM224 184C246.057 184 264 201.943 264 224S246.057 264 224 264C201.945 264 184 246.057 184 224S201.945 184 224 184ZM224 0C100.5 0 0 100.484 0 224C0 309.656 47.688 386.562 124.438 424.719C128.469 426.703 133.219 425.078 135.156 421.109C137.125 417.156 135.531 412.344 131.562 410.375C60.281 374.969 16 303.547 16 224C16 109.312 109.312 16 224 16S432 109.312 432 224C432 303.547 387.719 374.969 316.438 410.375C312.469 412.344 310.875 417.156 312.844 421.109C314.219 423.922 317.062 425.547 320 425.547C321.188 425.547 322.406 425.281 323.562 424.719C400.312 386.562 448 309.656 448 224C448 100.484 347.5 0 224 0ZM314.688 325.672C316.25 327.219 318.312 328 320.344 328C322.406 328 324.438 327.219 326 325.641C353.094 298.469 368 262.359 368 224C368 144.594 303.406 80 224 80S80 144.594 80 224C80 262.359 94.906 298.469 122 325.641C125.094 328.766 130.156 328.797 133.312 325.672C136.437 322.547 136.437 317.484 133.312 314.359C109.25 290.188 96 258.109 96 224C96 153.422 153.406 96 224 96S352 153.422 352 224C352 258.109 338.75 290.188 314.688 314.359C311.562 317.484 311.562 322.547 314.688 325.672Z"/></svg>
